src/assets/cards/9C.svg

<svg clip-rule="evenodd" fill-rule="evenodd" stroke-linejoin="round" stroke-miterlimit="2" viewBox="0 0 934 1300" xmlns="http://www.w3.org/2000/svg"><g fill-rule="nonzero"><path d="m35.897 164.351 12.607-3.927c4.755 12.482 14.376 16.17 24.549 15.379 18.252-1.417 24.311-21.45 25.691-39.163-7.125 7.389-17.813 11.14-26.92 10.776-29.09-1.531-36.541-24.386-36.805-48.333-.815-20.196 7.69-34.823 22.279-41.522 7.715-3.399 25.389-3.399 33.167.628 17.838 9.232 24.449 25.201 23.244 63.298.025 31.348-6.774 67.864-40.994 68.642-19.77 2.684-34.798-12.419-36.818-25.778zm49.525-34.347c5.933-3.688 9.283-7.15 11.955-12.343 2.182-4.253 2.923-6.473 2.295-15.292-1.605-22.73-13.748-35.613-31.348-33.054-9.822 1.43-15.178 6.824-18.264 16.872-5.695 18.528 1.518 40.23 15.028 45.235 6.096 2.245 15.479 1.593 20.334-1.418z"/><path d="m894.376 1135.65-12.62 3.92c-4.754-12.48-14.363-16.16-24.536-15.37-18.265 1.42-24.324 21.45-25.691 39.17 7.113-7.4 17.813-11.15 26.907-10.79 29.103 1.54 36.542 24.4 36.818 48.34.803 20.2-7.702 34.82-22.291 41.52-7.715 3.4-25.39 3.4-33.155-.62-17.85-9.24-24.449-25.21-23.257-63.3-.012-31.35 6.774-67.86 40.995-68.64 19.782-2.69 34.797 12.41 36.83 25.77zm-49.538 34.35c-5.933 3.68-9.282 7.15-11.942 12.34-2.182 4.26-2.923 6.47-2.295 15.29 1.593 22.73 13.736 35.62 31.348 33.06 9.822-1.43 15.178-6.83 18.264-16.87 5.683-18.54-1.53-40.24-15.04-45.24-6.097-2.25-15.48-1.6-20.335 1.42z"/><path d="m647.604 630.91c11.958-24.067 20.708-48.754 22.25-75.154 1.458-9.717-4.458-9.879-5.333-3.038-17 64.971-107.375 47.375-104.25-13.737 2.5-49.558 51.75-60.221 77.416-44.017 10.125 5.971 9.584 2.396 4.042-3.8-38.167-42.546-15.042-97.341 36.5-98.341 55.75 3.304 70.208 61.958 36 96.45-4.25 4.145-13.667 17.462.542 8.15 34.5-24.534 82.416 1.845 81.458 39.67-1.792 69.746-86.833 74.946-105 16.692-1.75-6.458-6.792-9.704-5.417 1.267 2.542 19.862 7.75 49.808 22.667 75.858z"/><path d="m435.812 744.048c12-24.067 20.75-48.755 22.292-75.159 1.417-9.712-4.458-9.879-5.333-3.033-17 64.967-107.375 47.375-104.25-13.738 2.5-49.562 51.75-60.225 77.416-44.016 10.125 5.966 9.584 2.391 4.042-3.8-38.167-42.55-15.042-97.342 36.5-98.346 55.75 3.308 70.208 61.958 36 96.454-4.25 4.142-13.667 17.463.542 8.15 34.5-24.533 82.416 1.846 81.458 39.671-1.792 69.746-86.833 74.946-105 16.692-1.75-6.463-6.792-9.705-5.417 1.266 2.542 19.859 7.75 49.804 22.667 75.859z"/><path d="m224.521 630.91c12-24.067 20.75-48.754 22.291-75.154 1.417-9.717-4.458-9.879-5.375-3.038-16.958 64.971-107.333 47.375-104.208-13.737 2.5-49.558 51.708-60.221 77.417-44.017 10.125 5.971 9.541 2.396 4.041-3.8-38.166-42.546-15.041-97.341 36.5-98.341 55.75 3.304 70.209 61.958 36 96.45-4.25 4.145-13.666 17.462.5 8.15 34.542-24.534 82.459 1.845 81.5 39.67-1.833 69.746-86.833 74.946-105.041 16.692-1.75-6.458-6.792-9.704-5.375 1.267 2.5 19.862 7.75 49.808 22.666 75.858z"/><path d="m647.604 358.698c11.958-24.063 20.708-48.755 22.25-75.155 1.458-9.716-4.458-9.879-5.333-3.037-17 64.971-107.375 47.379-104.25-13.733 2.5-49.563 51.75-60.225 77.416-44.021 10.125 5.971 9.584 2.396 4.042-3.796-38.167-42.55-15.042-97.342 36.5-98.346 55.75 3.308 70.208 61.958 36 96.45-4.25 4.146-13.667 17.467.542 8.154 34.5-24.533 82.416 1.846 81.458 39.667-1.792 69.746-86.833 74.95-105 16.692-1.75-6.459-6.792-9.7-5.417 1.27 2.542 19.859 7.75 49.805 22.667 75.855z"/><path d="m224.521 358.698c12-24.063 20.75-48.755 22.291-75.155 1.417-9.716-4.458-9.879-5.375-3.037-16.958 64.971-107.333 47.379-104.208-13.733 2.5-49.563 51.708-60.225 77.417-44.021 10.125 5.971 9.541 2.396 4.041-3.796-38.166-42.55-15.041-97.342 36.5-98.346 55.75 3.308 70.209 61.958 36 96.45-4.25 4.146-13.666 17.467.5 8.154 34.542-24.533 82.459 1.846 81.5 39.667-1.833 69.746-86.833 74.95-105.041 16.692-1.75-6.459-6.792-9.7-5.375 1.27 2.5 19.859 7.75 49.805 22.666 75.855z"/><path d="m285.771 942.831c-11.959 24.062-20.709 48.754-22.25 75.159-1.459 9.71 4.458 9.87 5.333 3.03 17-64.968 107.375-47.377 104.25 13.74-2.5 49.56-51.75 60.22-77.417 44.02-10.166-5.97-9.583-2.4-4.041 3.8 38.166 42.54 15.041 97.33-36.5 98.34-55.75-3.31-70.209-61.96-36-96.45 4.25-4.15 13.666-17.46-.542-8.15-34.5 24.53-82.417-1.85-81.458-39.67 1.791-69.748 86.833-74.952 105-16.69 1.75 6.45 6.791 9.7 5.416-1.27-2.541-19.863-7.75-49.809-22.666-75.859z"/><path d="m708.854 942.831c-12 24.062-20.75 48.754-22.292 75.159-1.416 9.71 4.459 9.87 5.375 3.03 16.959-64.968 107.334-47.377 104.209 13.74-2.5 49.56-51.709 60.22-77.417 44.02-10.125-5.97-9.542-2.4-4.042 3.8 38.167 42.54 15.042 97.33-36.5 98.34-55.75-3.31-70.208-61.96-36-96.45 4.25-4.15 13.667-17.46-.5-8.15-34.541 24.53-82.458-1.85-81.5-39.67 1.834-69.748 86.834-74.952 105.042-16.69 1.75 6.45 6.75 9.7 5.375-1.27-2.5-19.863-7.75-49.809-22.667-75.859z"/><path d="m708.854 671.56c-12 24.063-20.75 48.754-22.292 75.154-1.416 9.717 4.459 9.879 5.375 3.034 16.959-64.967 107.334-47.375 104.209 13.737-2.5 49.563-51.709 60.225-77.417 44.021-10.125-5.971-9.542-2.396-4.042 3.796 38.167 42.55 15.042 97.341-36.5 98.346-55.75-3.309-70.208-61.959-36-96.455 4.25-4.141 13.667-17.462-.5-8.15-34.541 24.534-82.458-1.845-81.5-39.67 1.834-69.746 86.834-74.946 105.042-16.688 1.75 6.458 6.75 9.7 5.375-1.271-2.5-19.858-7.75-49.804-22.667-75.854z"/><path d="m285.771 671.56c-11.959 24.063-20.709 48.754-22.25 75.154-1.459 9.717 4.458 9.879 5.333 3.034 17-64.967 107.375-47.375 104.25 13.737-2.5 49.563-51.75 60.225-77.417 44.021-10.166-5.971-9.583-2.396-4.041 3.796 38.166 42.55 15.041 97.341-36.5 98.346-55.75-3.309-70.209-61.959-36-96.455 4.25-4.141 13.666-17.462-.542-8.15-34.5 24.534-82.417-1.845-81.458-39.67 1.791-69.746 86.833-74.946 105-16.688 1.75 6.458 6.791 9.7 5.416-1.271-2.541-19.858-7.75-49.804-22.666-75.854z"/><path d="m56.437 303.531c5-10.188 9.834-19.671 12.459-30.838 1.75-10.533-1.834-6.62-3.875.284-3 9.571-11.334 13.933-19.084 14.037-14.041.188-21.041-10.85-20.625-22.725-1.5-12.496 11.167-21.333 20.709-20.654 7.166.513 13.416 4.383 17.208 7.396 2.458 1.317 5.125 1.896 1.417-1.492-6.959-7.637-12.792-12.35-12.667-23.796.125-10.745 9.292-21.95 21.458-21.6 15.209.442 22.167 12.042 22.125 22.838-.041 7.867-4 15.108-10.083 19.596-3.917 3.191-2.833 5.579 1.667 2.558 4.333-3.717 9.458-5.342 14.791-5.458 14.542-.225 20.209 12.341 19.375 24.021-.75 10.937-10.083 22.2-22.375 20.925-10.958-1.259-16.708-10.459-20-19.905-1.083-2.895-2.833-3.679-2.791.638 2.541 21.075 10.375 34.187 10.458 34.175z"/><path d="m876.896 989.668c-5 10.188-9.792 19.672-12.459 30.842-1.75 10.53 1.834 6.61 3.875-.29 3-9.57 11.334-13.93 19.084-14.04 14.041-.19 21.041 10.85 20.625 22.73 1.5 12.49-11.125 21.33-20.709 20.65-7.166-.51-13.416-4.38-17.208-7.4-2.458-1.31-5.125-1.89-1.417 1.5 6.959 7.63 12.792 12.35 12.667 23.79-.125 10.75-9.292 21.95-21.458 21.6-15.209-.44-22.167-12.04-22.125-22.84.041-7.86 4-15.1 10.083-19.59 3.917-3.19 2.833-5.58-1.667-2.56-4.333 3.72-9.458 5.35-14.791 5.46-14.542.23-20.209-12.34-19.375-24.02.75-10.94 10.083-22.2 22.375-20.93 10.958 1.26 16.708 10.46 20 19.91 1.083 2.89 2.833 3.68 2.791-.64-2.541-21.07-10.375-34.184-10.458-34.172z"/></g></svg>

<?xml version="1.0" encoding="UTF-8" standalone="no"?>
<!DOCTYPE svg PUBLIC "-//W3C//DTD SVG 1.1//EN" "http://www.w3.org/Graphics/SVG/1.1/DTD/svg11.dtd">
<svg width="100%" height="100%" viewBox="0 0 934 1300" version="1.1" xmlns="http://www.w3.org/2000/svg" xmlns:xlink="http://www.w3.org/1999/xlink" xml:space="preserve" xmlns:serif="http://www.serif.com/" style="fill-rule:evenodd;clip-rule:evenodd;stroke-linejoin:round;stroke-miterlimit:2;">
    <g>
        <path d="M35.897,164.351L48.504,160.424C53.259,172.906 62.88,176.594 73.053,175.803C91.305,174.386 97.364,154.353 98.744,136.64C91.619,144.029 80.931,147.78 71.824,147.416C42.734,145.885 35.283,123.03 35.019,99.083C34.204,78.887 42.709,64.26 57.298,57.561C65.013,54.162 82.687,54.162 90.465,58.189C108.303,67.421 114.914,83.39 113.709,121.487C113.734,152.835 106.935,189.351 72.715,190.129C52.945,192.813 37.917,177.71 35.897,164.351ZM85.422,130.004C91.355,126.316 94.705,122.854 97.377,117.661C99.559,113.408 100.3,111.188 99.672,102.369C98.067,79.639 85.924,66.756 68.324,69.315C58.502,70.745 53.146,76.139 50.06,86.187C44.365,104.715 51.578,126.417 65.088,131.422C71.184,133.667 80.567,133.015 85.422,130.004Z" style="fill-rule:nonzero;"/>
        <path d="M894.376,1135.65L881.756,1139.57C877.002,1127.09 867.393,1123.41 857.22,1124.2C838.955,1125.62 832.896,1145.65 831.529,1163.37C838.642,1155.97 849.342,1152.22 858.436,1152.58C887.539,1154.12 894.978,1176.98 895.254,1200.92C896.057,1221.12 887.552,1235.74 872.963,1242.44C865.248,1245.84 847.573,1245.84 839.808,1241.82C821.958,1232.58 815.359,1216.61 816.551,1178.52C816.539,1147.17 823.325,1110.66 857.546,1109.88C877.328,1107.19 892.343,1122.29 894.376,1135.65ZM844.838,1170C838.905,1173.68 835.556,1177.15 832.896,1182.34C830.714,1186.6 829.973,1188.81 830.601,1197.63C832.194,1220.36 844.337,1233.25 861.949,1230.69C871.771,1229.26 877.127,1223.86 880.213,1213.82C885.896,1195.28 878.683,1173.58 865.173,1168.58C859.076,1166.33 849.693,1166.98 844.838,1170Z" style="fill-rule:nonzero;"/>
        <path d="M647.604,630.91C659.562,606.843 668.312,582.156 669.854,555.756C671.312,546.039 665.396,545.877 664.521,552.718C647.521,617.689 557.146,600.093 560.271,538.981C562.771,489.423 612.021,478.76 637.687,494.964C647.812,500.935 647.271,497.36 641.729,491.164C603.562,448.618 626.687,393.823 678.229,392.823C733.979,396.127 748.437,454.781 714.229,489.273C709.979,493.418 700.562,506.735 714.771,497.423C749.271,472.889 797.187,499.268 796.229,537.093C794.437,606.839 709.396,612.039 691.229,553.785C689.479,547.327 684.437,544.081 685.812,555.052C688.354,574.914 693.562,604.86 708.479,630.91L647.604,630.91Z" style="fill-rule:nonzero;"/>
        <path d="M435.812,744.048C447.812,719.981 456.562,695.293 458.104,668.889C459.521,659.177 453.646,659.01 452.771,665.856C435.771,730.823 345.396,713.231 348.521,652.118C351.021,602.556 400.271,591.893 425.937,608.102C436.062,614.068 435.521,610.493 429.979,604.302C391.812,561.752 414.937,506.96 466.479,505.956C522.229,509.264 536.687,567.914 502.479,602.41C498.229,606.552 488.812,619.873 503.021,610.56C537.521,586.027 585.437,612.406 584.479,650.231C582.687,719.977 497.646,725.177 479.479,666.923C477.729,660.46 472.687,657.218 474.062,668.189C476.604,688.048 481.812,717.993 496.729,744.048L435.812,744.048Z" style="fill-rule:nonzero;"/>
        <path d="M224.521,630.91C236.521,606.843 245.271,582.156 246.812,555.756C248.229,546.039 242.354,545.877 241.437,552.718C224.479,617.689 134.104,600.093 137.229,538.981C139.729,489.423 188.937,478.76 214.646,494.964C224.771,500.935 224.187,497.36 218.687,491.164C180.521,448.618 203.646,393.823 255.187,392.823C310.937,396.127 325.396,454.781 291.187,489.273C286.937,493.418 277.521,506.735 291.687,497.423C326.229,472.889 374.146,499.268 373.187,537.093C371.354,606.839 286.354,612.039 268.146,553.785C266.396,547.327 261.354,544.081 262.771,555.052C265.271,574.914 270.521,604.86 285.437,630.91L224.521,630.91Z" style="fill-rule:nonzero;"/>
        <path d="M647.604,358.698C659.562,334.635 668.312,309.943 669.854,283.543C671.312,273.827 665.396,273.664 664.521,280.506C647.521,345.477 557.146,327.885 560.271,266.773C562.771,217.21 612.021,206.548 637.687,222.752C647.812,228.723 647.271,225.148 641.729,218.956C603.562,176.406 626.687,121.614 678.229,120.61C733.979,123.918 748.437,182.568 714.229,217.06C709.979,221.206 700.562,234.527 714.771,225.214C749.271,200.681 797.187,227.06 796.229,264.881C794.437,334.627 709.396,339.831 691.229,281.573C689.479,275.114 684.437,271.873 685.812,282.843C688.354,302.702 693.562,332.648 708.479,358.698L647.604,358.698Z" style="fill-rule:nonzero;"/>
        <path d="M224.521,358.698C236.521,334.635 245.271,309.943 246.812,283.543C248.229,273.827 242.354,273.664 241.437,280.506C224.479,345.477 134.104,327.885 137.229,266.773C139.729,217.21 188.937,206.548 214.646,222.752C224.771,228.723 224.187,225.148 218.687,218.956C180.521,176.406 203.646,121.614 255.187,120.61C310.937,123.918 325.396,182.568 291.187,217.06C286.937,221.206 277.521,234.527 291.687,225.214C326.229,200.681 374.146,227.06 373.187,264.881C371.354,334.627 286.354,339.831 268.146,281.573C266.396,275.114 261.354,271.873 262.771,282.843C265.271,302.702 270.521,332.648 285.437,358.698L224.521,358.698Z" style="fill-rule:nonzero;"/>
        <path d="M285.771,942.831C273.812,966.893 265.062,991.585 263.521,1017.99C262.062,1027.7 267.979,1027.86 268.854,1021.02C285.854,956.052 376.229,973.643 373.104,1034.76C370.604,1084.32 321.354,1094.98 295.687,1078.78C285.521,1072.81 286.104,1076.38 291.646,1082.58C329.812,1125.12 306.687,1179.91 255.146,1180.92C199.396,1177.61 184.937,1118.96 219.146,1084.47C223.396,1080.32 232.812,1067.01 218.604,1076.32C184.104,1100.85 136.187,1074.47 137.146,1036.65C138.937,966.902 223.979,961.698 242.146,1019.96C243.896,1026.41 248.937,1029.66 247.562,1018.69C245.021,998.827 239.812,968.881 224.896,942.831L285.771,942.831Z" style="fill-rule:nonzero;"/>
        <path d="M708.854,942.831C696.854,966.893 688.104,991.585 686.562,1017.99C685.146,1027.7 691.021,1027.86 691.937,1021.02C708.896,956.052 799.271,973.643 796.146,1034.76C793.646,1084.32 744.437,1094.98 718.729,1078.78C708.604,1072.81 709.187,1076.38 714.687,1082.58C752.854,1125.12 729.729,1179.91 678.187,1180.92C622.437,1177.61 607.979,1118.96 642.187,1084.47C646.437,1080.32 655.854,1067.01 641.687,1076.32C607.146,1100.85 559.229,1074.47 560.187,1036.65C562.021,966.902 647.021,961.698 665.229,1019.96C666.979,1026.41 671.979,1029.66 670.604,1018.69C668.104,998.827 662.854,968.881 647.937,942.831L708.854,942.831Z" style="fill-rule:nonzero;"/>
        <path d="M708.854,671.56C696.854,695.623 688.104,720.314 686.562,746.714C685.146,756.431 691.021,756.593 691.937,749.748C708.896,684.781 799.271,702.373 796.146,763.485C793.646,813.048 744.437,823.71 718.729,807.506C708.604,801.535 709.187,805.11 714.687,811.302C752.854,853.852 729.729,908.643 678.187,909.648C622.437,906.339 607.979,847.689 642.187,813.193C646.437,809.052 655.854,795.731 641.687,805.043C607.146,829.577 559.229,803.198 560.187,765.373C562.021,695.627 647.021,690.427 665.229,748.685C666.979,755.143 671.979,758.385 670.604,747.414C668.104,727.556 662.854,697.61 647.937,671.56L708.854,671.56Z" style="fill-rule:nonzero;"/>
        <path d="M285.771,671.56C273.812,695.623 265.062,720.314 263.521,746.714C262.062,756.431 267.979,756.593 268.854,749.748C285.854,684.781 376.229,702.373 373.104,763.485C370.604,813.048 321.354,823.71 295.687,807.506C285.521,801.535 286.104,805.11 291.646,811.302C329.812,853.852 306.687,908.643 255.146,909.648C199.396,906.339 184.937,847.689 219.146,813.193C223.396,809.052 232.812,795.731 218.604,805.043C184.104,829.577 136.187,803.198 137.146,765.373C138.937,695.627 223.979,690.427 242.146,748.685C243.896,755.143 248.937,758.385 247.562,747.414C245.021,727.556 239.812,697.61 224.896,671.56L285.771,671.56Z" style="fill-rule:nonzero;"/>
        <path d="M56.437,303.531C61.437,293.343 66.271,283.86 68.896,272.693C70.646,262.16 67.062,266.073 65.021,272.977C62.021,282.548 53.687,286.91 45.937,287.014C31.896,287.202 24.896,276.164 25.312,264.289C23.812,251.793 36.479,242.956 46.021,243.635C53.187,244.148 59.437,248.018 63.229,251.031C65.687,252.348 68.354,252.927 64.646,249.539C57.687,241.902 51.854,237.189 51.979,225.743C52.104,214.998 61.271,203.793 73.437,204.143C88.646,204.585 95.604,216.185 95.562,226.981C95.521,234.848 91.562,242.089 85.479,246.577C81.562,249.768 82.646,252.156 87.146,249.135C91.479,245.418 96.604,243.793 101.937,243.677C116.479,243.452 122.146,256.018 121.312,267.698C120.562,278.635 111.229,289.898 98.937,288.623C87.979,287.364 82.229,278.164 78.937,268.718C77.854,265.823 76.104,265.039 76.146,269.356C78.687,290.431 86.521,303.543 86.604,303.531L56.437,303.531Z" style="fill-rule:nonzero;"/>
        <path d="M876.896,989.668C871.896,999.856 867.104,1009.34 864.437,1020.51C862.687,1031.04 866.271,1027.12 868.312,1020.22C871.312,1010.65 879.646,1006.29 887.396,1006.18C901.437,1005.99 908.437,1017.03 908.021,1028.91C909.521,1041.4 896.896,1050.24 887.312,1049.56C880.146,1049.05 873.896,1045.18 870.104,1042.16C867.646,1040.85 864.979,1040.27 868.687,1043.66C875.646,1051.29 881.479,1056.01 881.354,1067.45C881.229,1078.2 872.062,1089.4 859.896,1089.05C844.687,1088.61 837.729,1077.01 837.771,1066.21C837.812,1058.35 841.771,1051.11 847.854,1046.62C851.771,1043.43 850.687,1041.04 846.187,1044.06C841.854,1047.78 836.729,1049.41 831.396,1049.52C816.854,1049.75 811.187,1037.18 812.021,1025.5C812.771,1014.56 822.104,1003.3 834.396,1004.57C845.354,1005.83 851.104,1015.03 854.396,1024.48C855.479,1027.37 857.229,1028.16 857.187,1023.84C854.646,1002.77 846.812,989.656 846.729,989.668L876.896,989.668Z" style="fill-rule:nonzero;"/>
    </g>
</svg>
